src/components/00-materials/images-raw/Plane.svg

<svg width="96" height="96" viewBox="0 0 96 96" fill="none" xmlns="http://www.w3.org/2000/svg">
<path d="M28 38.9998H24.89C23.0406 39.0132 21.261 38.2942 19.94 36.9998L14.17 30.4198C13.7961 29.9913 13.3351 29.6475 12.8178 29.4112C12.3004 29.175 11.7387 29.0518 11.17 29.0498H8L11 41.9198" stroke="#00008F" stroke-width="2" stroke-linecap="round" stroke-linejoin="round"/>
<path d="M58 58H84.06C85.3702 58 86.6267 57.4796 87.5531 56.5531C88.4795 55.6267 89 54.3702 89 53.06C88.9993 52.4168 88.8543 51.7819 88.5756 51.2021C88.297 50.6223 87.8918 50.1124 87.39 49.71L78 42.19C75.4156 40.1196 72.2015 38.9942 68.89 39H26L12.3 41.42C11.3747 41.5845 10.5369 42.0695 9.9335 42.7899C9.33008 43.5104 8.99959 44.4203 9 45.36C9.00116 46.4555 9.31146 47.5284 9.89524 48.4554C10.479 49.3823 11.3125 50.1257 12.3 50.6C16.99 52.85 25.3 56.74 27.96 57.32C29.9857 57.771 32.0547 57.9991 34.13 58H40" stroke="#00008F" stroke-width="2" stroke-linecap="round" stroke-linejoin="round"/>
<path d="M82.68 46H73L68.88 39M27 45H29M34 45H36M41 45H43M48 45H50M55 45H57M62 45H64M41 50L37 82H40.49C41.5549 81.9999 42.6005 81.7165 43.5197 81.1787C44.4388 80.641 45.1982 79.8683 45.72 78.94L62 50H41ZM56 39L45.72 22.06C45.1982 21.1317 44.4388 20.359 43.5197 19.8213C42.6005 19.2835 41.5549 19.0001 40.49 19H37L40 39H56Z" stroke="#00008F" stroke-width="2" stroke-linecap="round" stroke-linejoin="round"/>
<path d="M60.31 53H81.9C85 53 86.79 52.21 88.19 50.81M10 48L27.29 52.52C29.0924 52.8398 30.9194 53.0004 32.75 53H40.63" stroke="#00008F" stroke-width="2" stroke-linecap="round" stroke-linejoin="round"/>
</svg>

<svg width="96" height="96" viewBox="0 0 96 96" fill="none" xmlns="http://www.w3.org/2000/svg"><path d="M28 39h-3.11a7 7 0 01-4.95-2l-5.77-6.58a4 4 0 00-3-1.37H8l3 12.87" stroke="#00008F" stroke-width="2" stroke-linecap="round" stroke-linejoin="round"/><path d="M58 58h26.06A4.94 4.94 0 0089 53.06a4.3 4.3 0 00-1.61-3.35L78 42.19A14.53 14.53 0 0068.89 39H26l-13.7 2.42A4 4 0 009 45.36a5.82 5.82 0 003.3 5.24c4.69 2.25 13 6.14 15.66 6.72 2.026.451 4.095.68 6.17.68H40" stroke="#00008F" stroke-width="2" stroke-linecap="round" stroke-linejoin="round"/><path d="M82.68 46H73l-4.12-7M27 45h2m5 0h2m5 0h2m5 0h2m5 0h2m5 0h2m-23 5l-4 32h3.49a6 6 0 005.23-3.06L62 50H41zm15-11L45.72 22.06A6 6 0 0040.49 19H37l3 20h16z" stroke="#00008F" stroke-width="2" stroke-linecap="round" stroke-linejoin="round"/><path d="M60.31 53H81.9c3.1 0 4.89-.79 6.29-2.19M10 48l17.29 4.52c1.802.32 3.63.48 5.46.48h7.88" stroke="#00008F" stroke-width="2" stroke-linecap="round" stroke-linejoin="round"/></svg>
